X: 020557
T: Bobby Casey's
S: Treoir 
Z: B.Black
M: 4/4
L: 1/8
R: reel
K: Ddor
DE | FEDE FGAG | FEDF ECCE | FEDE FGAG |\
(3FED EC A,DDE |
FEDE FGAB | cAGF ECCE | DEFG AddB |\
cAGc AD D2 ||
(3d^cd Ad d=cAG | FEDF ECCc | (3ded Ad dcAG |\
Addc d2 de |
fdec dcAG | FEDF ECCE | DEFG AddB |\
cAGF ED D2 ||
